X:085
T:Lincoln Hornpipe TS.085
T:Fisher’s Hornpipe,aka TS.085
M:C|
L:1/8
Q:1/2=90
S:Thomas Sands’ MS,1810,Lincolnshire
N:Dotted crotchets followed by semi-quavers
N:very unusual but consistent. Tune as written in MS.
R:.hornpipe
O:England;Lincolnshire
Z:vmp.Ruairidh Greig, 2011
K:G
“As writ in ms”B>A|GFGD B,DGB|A>GAF DFAc|BdBG ecAG|FGAF D3 B>A|
GFGD B,DGB|AGAF DFAc|BdBG ecAF|G2G/G/G2:|
|:B/c/|d>BGG G3c/d/|e>cAA A3 B/c/|dBGB ecAB|FGAFD3B/A/|
GFGD B,DGB|AGAF DFAc|BdBG ecAF|G2G/G/G2:|]

